X: 193
T: Pao Shanyao
L: 1/8
M: 4/4
K: G
E2d e d c B A [I:setbarnb 1]| 
E2d e d c B A | 
G2>E2 B e d c | 
B A/ B/ A EG4 | 
F> F E D BB2d | 
A> B F ED4 | 
F4E> F D E | 
BA2DG2F E | 
D8 |]

@@@ Tune index: 9067
